icon-themes/breeze_svg/cmd/lc_connectorlines.svg

<svg viewBox="0 0 24 24" xmlns="http://www.w3.org/2000/svg"><path d="m7 4c-1.6568542 0-3 1.343141-3 3s1.3431458 3 3 3c1.3013209 0 2.3969895-.8416511 2.8125-2h.375l1.84375 9.1875.15625.8125h.8125v.03125l.15625-.03125h1.03125c.415511 1.158349 1.511182 2 2.8125 2 1.65685 0 3-1.34314 3-3s-1.34315-3-3-3c-1.301318 0-2.396989.841651-2.8125 2h-.375l-1.84375-9.1875-.15625-.8125h-.8125-.125-1.0625c-.4155105-1.1583489-1.5111791-2-2.8125-2zm0 2c.5522847 0 1 .4477153 1 1s-.4477153 1-1 1-1-.4477153-1-1 .4477153-1 1-1zm10 10c.55228 0 1 .44772 1 1s-.44772 1-1 1-1-.44772-1-1 .44772-1 1-1z" fill="#4d4d4d"/></svg>

<svg xmlns="http://www.w3.org/2000/svg" viewBox="0 0 24 24">
 <path 
     style="fill:#4d4d4d" 
     d="M 7 4 C 5.3431458 4 4 5.343141 4 7 C 4 8.656859 5.3431458 10 7 10 C 8.3013209 10 9.3969895 9.1583489 9.8125 8 L 10.1875 8 L 12.03125 17.1875 L 12.1875 18 L 13 18 L 13 18.03125 L 13.15625 18 L 14.1875 18 C 14.603011 19.158349 15.698682 20 17 20 C 18.65685 20 20 18.65686 20 17 C 20 15.34314 18.65685 14 17 14 C 15.698682 14 14.603011 14.841651 14.1875 16 L 13.8125 16 L 11.96875 6.8125 L 11.8125 6 L 11 6 L 10.875 6 L 9.8125 6 C 9.3969895 4.8416511 8.3013209 4 7 4 z M 7 6 C 7.5522847 6 8 6.4477153 8 7 C 8 7.5522847 7.5522847 8 7 8 C 6.4477153 8 6 7.5522847 6 7 C 6 6.4477153 6.4477153 6 7 6 z M 17 16 C 17.55228 16 18 16.44772 18 17 C 18 17.55228 17.55228 18 17 18 C 16.44772 18 16 17.55228 16 17 C 16 16.44772 16.44772 16 17 16 z "
     />
 </svg>
